packages/clay/build/images/icons/lock.svg

<?xml version="1.0" encoding="utf-8"?>
<!-- Generated by IcoMoon.io -->
<!DOCTYPE svg PUBLIC "-//W3C//DTD SVG 1.1//EN" "http://www.w3.org/Graphics/SVG/1.1/DTD/svg11.dtd">
<svg version="1.1" xmlns="http://www.w3.org/2000/svg" xmlns:xlink="http://www.w3.org/1999/xlink" width="512" height="512" viewBox="0 0 512 512"><g id="icomoon-ignore">
</g>
<path d="M384 256v-128c0-70.568-57.432-128-128-128s-128 57.432-128 128v128c-28.233 0-51.2 22.967-51.2 51.2v153.6c0 28.233 22.967 51.2 51.2 51.2h256c28.233 0 51.2-22.967 51.2-51.2v-153.6c0-28.233-22.967-51.2-51.2-51.2v0zM179.2 128c0-42.364 34.436-76.8 76.8-76.8s76.8 34.436 76.8 76.8v128h-153.6v-128zM128 448v-128h256l0.029 128h-256.029z"></path>
<path d="M224 352h64v64h-64v-64z"></path>
</svg>

<?xml version="1.0" encoding="utf-8"?>
<!-- Generator: Adobe Illustrator 19.2.1, SVG Export Plug-In . SVG Version: 6.00 Build 0)  -->
<svg version="1.1" id="Layer_1" xmlns="http://www.w3.org/2000/svg" xmlns:xlink="http://www.w3.org/1999/xlink" x="0px" y="0px"
	 viewBox="0 0 512 512" style="enable-background:new 0 0 512 512;" xml:space="preserve">
<path class="lexicon-icon-body" fill="none" d="M384,256V128C384,57.4,326.6,0,256,0S128,57.4,128,128v128c-28.2,0-51.2,23-51.2,51.2v153.6
	c0,28.2,23,51.2,51.2,51.2h256c28.2,0,51.2-23,51.2-51.2V307.2C435.2,279,412.2,256,384,256z M332.8,256H179.2V128
	c0-42.4,34.4-76.8,76.8-76.8s76.8,34.4,76.8,76.8V256z"/>
<path class="lexicon-icon-outline" d="M384,256V128C384,57.4,326.6,0,256,0S128,57.4,128,128v128c-28.2,0-51.2,23-51.2,51.2v153.6c0,28.2,23,51.2,51.2,51.2h256
	c28.2,0,51.2-23,51.2-51.2V307.2C435.2,279,412.2,256,384,256L384,256L384,256z M179.2,128c0-42.4,34.4-76.8,76.8-76.8
	s76.8,34.4,76.8,76.8v128H179.2L179.2,128L179.2,128z M128,448V320h256l0,128H128z"/>
<path class="lexicon-icon-outline" d="M224,352h64v64h-64V352z"/>
</svg>
